web/packages/design/src/ResourceIcon/assets/mysql-large-light.svg

<svg width="72" height="72" viewBox="0 0 72 72" fill="none" xmlns="http://www.w3.org/2000/svg">
<g clip-path="url(#clip0_6709_29925)">
<path d="M17.3094 56.0801H14.5314C14.4337 51.395 14.1629 46.9894 13.7203 42.8626H13.6958L9.46606 56.0801H7.35088L3.14679 42.8626H3.12202C2.81008 46.8259 2.61383 51.2314 2.53199 56.0801H-0.000976562C0.162709 50.1833 0.57235 44.6557 1.22795 39.4958H4.67116L8.67909 51.6814H8.70369L12.7362 39.4958H16.0308C16.7522 45.5389 17.1782 51.0683 17.3091 56.0801" fill="#00758F"/>
<path d="M29.36 43.8444C28.2287 49.9775 26.7365 54.4344 24.8843 57.2147C23.4412 59.3571 21.8603 60.4282 20.1388 60.4282C19.6798 60.4282 19.1139 60.2901 18.4424 60.0157V58.5372C18.7704 58.5852 19.1554 58.6108 19.5981 58.6108C20.4012 58.6108 21.0485 58.389 21.5409 57.9464C22.1306 57.407 22.4257 56.8008 22.4257 56.129C22.4257 55.6701 22.1955 54.7285 21.7373 53.3041L18.6884 43.8444H21.4176L23.6057 50.9194C24.0973 52.5257 24.3024 53.6471 24.2203 54.2863C25.4171 51.0923 26.2532 47.6116 26.7289 43.8444H29.3599" fill="#00758F"/>
<path d="M41.5296 51.483C41.5296 52.8895 41.0124 54.0441 39.9814 54.9475C38.9496 55.8469 37.5634 56.2979 35.8276 56.2979C34.204 56.2979 32.6306 55.7789 31.1064 54.7494L31.8195 53.3248C33.1311 53.9799 34.318 54.307 35.3837 54.307C36.3834 54.307 37.1658 54.0847 37.7318 53.6455C38.2966 53.2032 38.6351 52.5862 38.6351 51.8037C38.6351 50.819 37.9478 49.9773 36.6867 49.2712C35.5225 48.6328 33.1958 47.3001 33.1958 47.3001C31.9352 46.3813 31.3031 45.3954 31.3031 43.771C31.3031 42.4275 31.7745 41.3417 32.7159 40.5155C33.6594 39.6876 34.8768 39.2737 36.3675 39.2737C37.9084 39.2737 39.3095 39.6846 40.5715 40.5034L39.9304 41.9267C38.8506 41.4692 37.7858 41.2396 36.736 41.2396C35.8842 41.2396 35.2277 41.444 34.7701 41.8551C34.3099 42.2626 34.0254 42.7871 34.0254 43.4263C34.0254 44.4085 34.7277 45.2604 36.0243 45.9802C37.2031 46.6189 39.5868 47.9774 39.5868 47.9774C40.8834 48.8946 41.5296 49.8724 41.5296 51.483Z" fill="#F29111"/>
<path fill-rule="evenodd" clip-rule="evenodd" d="M46.4955 52.7622C45.8232 51.6812 45.4864 49.9464 45.4864 47.5544C45.4864 43.3783 46.7573 41.289 49.2978 41.289C50.6262 41.289 51.601 41.7887 52.2245 42.7871C52.8959 43.8687 53.2327 45.5884 53.2327 47.947C53.2327 52.1565 51.9618 54.2621 49.4212 54.2621C48.0933 54.2621 47.1181 53.7629 46.4955 52.7624M56.38 56.4799L53.3291 54.9767C53.6008 54.7541 53.8587 54.5139 54.0923 54.2359C55.3876 52.7144 56.0359 50.4623 56.0359 47.4808C56.0359 41.9942 53.8802 39.2494 49.5691 39.2494C47.4545 39.2494 45.8065 39.9452 44.6264 41.3386C43.3306 42.862 42.6836 45.1056 42.6836 48.0702C42.6836 50.9854 43.2569 53.1239 44.4044 54.4824C45.45 55.7103 47.0311 56.3251 49.1479 56.3251C49.9376 56.3251 50.6622 56.228 51.3208 56.0337L55.2938 58.3438L56.377 56.4797" fill="#F29111"/>
<path d="M66.3387 56.0801H58.4463V39.4958H61.1021V54.04H66.3387V56.08" fill="#F29111"/>
<path d="M68.233 56.0781H68.673V54.3907H69.249V54.0461H67.6348V54.3907H68.233V56.0781ZM71.5818 56.0781H71.9966V54.0461H71.3726L70.8649 55.4312L70.3121 54.0461H69.7109V56.0781H70.1034V54.5316H70.1257L70.7046 56.0781H71.0037L71.5818 54.5316V56.0781Z" fill="#F29111"/>
<path fill-rule="evenodd" clip-rule="evenodd" d="M69.673 33.9405C68.0679 33.9004 66.8248 34.0604 65.7823 34.5016C65.4815 34.6217 65.0007 34.6217 64.9596 35.0025C65.1211 35.1625 65.1404 35.4228 65.2818 35.6442C65.5217 36.0449 65.9421 36.5851 66.3239 36.8664C66.7451 37.1872 67.1663 37.5066 67.6081 37.7871C68.3897 38.27 69.2724 38.5494 70.0334 39.0305C70.476 39.3106 70.9156 39.671 71.3583 39.9724C71.5781 40.1326 71.7174 40.3935 71.9993 40.4927V40.432C71.8579 40.2522 71.8185 39.9916 71.6788 39.7901C71.4787 39.5913 71.2777 39.4098 71.0768 39.2103C70.4949 38.4289 69.772 37.7483 68.9917 37.1872C68.3494 36.7451 66.9448 36.1439 66.6851 35.4047C66.6851 35.4047 66.6641 35.3835 66.6444 35.3638C67.0858 35.3231 67.6081 35.1625 68.0289 35.041C68.7097 34.8612 69.3315 34.9018 70.0334 34.722C70.3547 34.6413 70.6757 34.5404 70.9979 34.4419V34.2603C70.635 33.9004 70.3753 33.4187 69.9944 33.0784C68.9724 32.1971 67.848 31.3361 66.6851 30.6136C66.0625 30.2127 65.2604 29.9535 64.5983 29.612C64.3588 29.4916 63.9582 29.4322 63.8172 29.2307C63.456 28.79 63.2546 28.2097 62.9945 27.6879C62.4134 26.587 61.8508 25.3651 61.3503 24.201C60.9896 23.4201 60.7689 22.6391 60.3275 21.9173C58.2609 18.5102 56.0156 16.4474 52.5662 14.4232C51.824 14.0019 50.9418 13.8217 49.9999 13.6012C49.4977 13.5802 48.9968 13.5412 48.4955 13.5215C48.1741 13.3807 47.8528 12.9996 47.5725 12.8194C46.4289 12.0984 43.4821 10.5357 42.6393 12.5993C42.0976 13.9026 43.4414 15.1844 43.9029 15.8459C44.2435 16.3061 44.6853 16.828 44.9249 17.3482C45.0654 17.689 45.1057 18.0504 45.2467 18.4104C45.5672 19.292 45.8675 20.2741 46.2896 21.0961C46.5094 21.517 46.7498 21.9584 47.0305 22.3373C47.1924 22.5591 47.4723 22.658 47.5327 23.0198C47.2529 23.4201 47.231 24.0212 47.0708 24.5225C46.3492 26.7869 46.6294 29.5921 47.6526 31.255C47.9727 31.7559 48.7359 32.8583 49.7587 32.4365C50.6611 32.0765 50.4606 30.9342 50.7211 29.9329C50.7811 29.6908 50.7408 29.5319 50.8608 29.3718V29.4123C51.1414 29.9726 51.423 30.5122 51.6835 31.0752C52.3061 32.0561 53.3881 33.0782 54.2913 33.7589C54.7712 34.121 55.1526 34.7411 55.7542 34.9622V34.9017H55.7148C55.5939 34.7219 55.414 34.6411 55.2533 34.5015C54.8925 34.1405 54.4923 33.6995 54.2103 33.299C53.3683 32.1773 52.6253 30.9342 51.965 29.652C51.6432 29.0293 51.363 28.3487 51.102 27.7279C50.982 27.4885 50.9821 27.1268 50.7811 27.0069C50.4794 27.4472 50.0394 27.8285 49.8191 28.3679C49.4378 29.2305 49.3979 30.2923 49.2565 31.3949C49.1768 31.4159 49.2171 31.3949 49.1768 31.4348C48.5358 31.2746 48.3151 30.6134 48.0739 30.0542C47.4722 28.6296 47.3711 26.3454 47.8935 24.702C48.0332 24.282 48.6365 22.9595 48.3948 22.5588C48.2735 22.1765 47.8729 21.9581 47.6526 21.6563C47.3925 21.2757 47.1102 20.7957 46.9315 20.374C46.4499 19.2523 46.2078 18.0094 45.688 16.8877C45.4472 16.3658 45.0251 15.8246 44.6853 15.3447C44.3035 14.8035 43.8827 14.4229 43.5815 13.7824C43.4821 13.5615 43.3416 13.2006 43.5014 12.9608C43.5408 12.8003 43.6222 12.7399 43.7829 12.6996C44.0421 12.4792 44.7852 12.7592 45.0453 12.8795C45.7878 13.1792 46.4096 13.4613 47.0305 13.8813C47.3116 14.0821 47.6124 14.4627 47.9727 14.5638H48.3948C49.0362 14.7029 49.7587 14.6027 50.3607 14.7838C51.423 15.1242 52.3854 15.6251 53.2484 16.1663C55.8746 17.8296 58.0406 20.1946 59.504 23.0195C59.7452 23.4797 59.8463 23.901 60.0666 24.3809C60.4878 25.3648 61.0097 26.3666 61.43 27.3275C61.8508 28.2694 62.2527 29.2304 62.8552 30.0131C63.1552 30.4332 64.3588 30.6536 64.9004 30.8742C65.3006 31.054 65.9232 31.2145 66.2845 31.4346C66.9662 31.8547 67.6466 32.3364 68.2894 32.798C68.6095 33.0385 69.6126 33.5388 69.673 33.9402" fill="#00758F"/>
<path fill-rule="evenodd" clip-rule="evenodd" d="M49.2168 16.5251C48.8766 16.5251 48.6366 16.5662 48.3945 16.6257V16.666H48.4335C48.5955 16.9858 48.8766 17.208 49.0754 17.488C49.237 17.8087 49.3775 18.1281 49.5378 18.4492C49.5575 18.4295 49.5768 18.4085 49.5768 18.4085C49.8596 18.209 49.9997 17.8888 49.9997 17.4071C49.8784 17.2658 49.8596 17.1267 49.7585 16.9858C49.6385 16.7859 49.3775 16.6857 49.2168 16.5251Z" fill="#00758F"/>
</g>
<defs>
<clipPath id="clip0_6709_29925">
<rect width="72" height="72" fill="white"/>
</clipPath>
</defs>
</svg>

<svg xmlns="http://www.w3.org/2000/svg" width="72" height="72" fill="none" viewBox="0 0 72 72"><g clip-path="url(#clip0_6709_29925)"><path fill="#00758f" d="M17.31 56.08h-2.78q-.146-7.027-.81-13.217h-.025L9.466 56.08H7.351L3.147 42.863h-.025q-.467 5.944-.59 13.217H-.001q.245-8.845 1.229-16.584h3.443L8.68 51.68h.025l4.032-12.185h3.295q1.081 9.065 1.278 16.584m12.05-12.235q-1.697 9.2-4.476 13.37-2.164 3.214-4.745 3.214-.69 0-1.697-.412v-1.479q.492.073 1.156.074 1.204 0 1.943-.665.885-.809.885-1.817 0-.688-.689-2.825l-3.049-9.46h2.73l2.188 7.075q.737 2.41.614 3.367 1.795-4.79 2.509-10.442z"/><path fill="#f29111" d="M41.53 51.483q-.001 2.11-1.549 3.465-1.548 1.35-4.153 1.35c-1.624 0-3.197-.52-4.722-1.549l.713-1.424q1.967.982 3.565.982 1.5-.001 2.348-.662c.565-.442.903-1.059.903-1.841 0-.985-.687-1.827-1.948-2.533a305 305 0 0 1-3.491-1.97c-1.26-.92-1.893-1.906-1.893-3.53q0-2.016 1.413-3.255 1.414-1.242 3.651-1.242 2.312 0 4.205 1.23l-.642 1.423q-1.62-.687-3.194-.687-1.279 0-1.966.615c-.46.408-.745.932-.745 1.571 0 .982.703 1.834 2 2.554 1.178.639 3.562 1.997 3.562 1.997 1.296.918 1.943 1.895 1.943 3.506"/><path fill="#f29111" fill-rule="evenodd" d="M46.496 52.762q-1.01-1.62-1.01-5.208 0-6.264 3.812-6.265 1.992 0 2.926 1.498 1.008 1.622 1.009 5.16 0 6.315-3.812 6.315-1.992 0-2.925-1.5m9.884 3.718-3.05-1.503a5.7 5.7 0 0 0 .762-.741q1.944-2.283 1.944-6.755 0-8.231-6.467-8.232-3.172 0-4.943 2.09-1.942 2.285-1.942 6.731 0 4.374 1.72 6.412 1.569 1.843 4.744 1.843 1.185 0 2.173-.291l3.973 2.31 1.083-1.864" clip-rule="evenodd"/><path fill="#f29111" d="M66.339 56.08h-7.893V39.496h2.656V54.04h5.237zm1.894-.002h.44v-1.687h.576v-.345h-1.614v.345h.598zm3.349 0h.415v-2.032h-.624l-.508 1.385-.553-1.385h-.601v2.032h.392v-1.546h.023l.579 1.546h.299l.578-1.546z"/><path fill="#00758f" fill-rule="evenodd" d="M69.673 33.94c-1.605-.04-2.848.12-3.89.562-.302.12-.782.12-.823.5.161.16.18.42.322.642.24.4.66.941 1.042 1.222.421.321.842.64 1.284.921.782.483 1.664.762 2.425 1.244.443.28.883.64 1.325.941.22.16.36.422.641.52v-.06c-.141-.18-.18-.44-.32-.642-.2-.199-.401-.38-.602-.58a9.6 9.6 0 0 0-2.085-2.023c-.643-.442-2.047-1.043-2.307-1.782 0 0-.02-.022-.04-.041.44-.04.963-.201 1.384-.323.68-.18 1.303-.14 2.004-.319.322-.08.643-.182.965-.28v-.182c-.363-.36-.623-.841-1.004-1.182-1.022-.88-2.146-1.742-3.309-2.464-.623-.401-1.425-.66-2.087-1.002-.24-.12-.64-.18-.78-.381-.362-.441-.563-1.021-.823-1.543A50 50 0 0 1 61.35 24.2c-.36-.78-.581-1.562-1.023-2.284-2.066-3.407-4.311-5.47-7.76-7.494-.743-.421-1.625-.601-2.567-.822-.502-.02-1.003-.06-1.505-.08-.32-.14-.642-.521-.922-.702-1.144-.72-4.09-2.283-4.934-.22-.541 1.304.802 2.585 1.264 3.247.34.46.782.982 1.022 1.502.14.341.18.702.322 1.062.32.882.62 1.864 1.043 2.686.22.421.46.862.74 1.241.162.222.442.321.503.683-.28.4-.302 1.001-.462 1.503-.722 2.264-.442 5.07.582 6.732.32.5 1.083 1.603 2.106 1.182.902-.36.702-1.503.962-2.504.06-.242.02-.401.14-.561v.04c.28.56.562 1.1.823 1.663.622.981 1.704 2.003 2.607 2.684.48.362.862.982 1.463 1.203v-.06h-.04c-.12-.18-.3-.26-.46-.4a10 10 0 0 1-1.044-1.203c-.842-1.122-1.585-2.365-2.245-3.647-.322-.623-.602-1.303-.863-1.924-.12-.24-.12-.601-.32-.721-.303.44-.743.821-.963 1.36-.381.863-.421 1.925-.562 3.028-.08.02-.04 0-.08.04-.641-.16-.862-.822-1.103-1.38-.602-1.425-.703-3.71-.18-5.353.14-.42.742-1.743.5-2.143-.12-.383-.521-.6-.741-.903a8 8 0 0 1-.721-1.282c-.482-1.122-.724-2.365-1.244-3.486-.24-.522-.663-1.063-1.003-1.543-.382-.542-.802-.922-1.104-1.563-.099-.22-.24-.581-.08-.821.04-.16.121-.221.282-.261.26-.22 1.002.06 1.262.18.743.3 1.365.581 1.986 1.001.28.201.581.582.942.683h.422c.641.139 1.364.039 1.966.22 1.062.34 2.024.841 2.887 1.382a17.8 17.8 0 0 1 6.256 6.854c.241.46.342.881.563 1.36.42.985.943 1.987 1.363 2.948.42.941.823 1.902 1.425 2.685.3.42 1.504.64 2.045.861.4.18 1.023.34 1.384.56.682.42 1.363.902 2.005 1.364.32.24 1.324.74 1.384 1.142" clip-rule="evenodd"/><path fill="#00758f" fill-rule="evenodd" d="M49.217 16.525c-.34 0-.58.041-.822.1v.041h.038c.163.32.444.542.642.822.162.32.302.64.463.961l.039-.04c.283-.2.423-.52.423-1.002-.122-.141-.14-.28-.242-.421-.12-.2-.38-.3-.541-.46" clip-rule="evenodd"/></g><defs><clipPath id="clip0_6709_29925"><path fill="#fff" d="M0 0h72v72H0z"/></clipPath></defs></svg>
